X:1
T:Bone pulcherrime
T:Ignatio Donati
T:Source : Primo libro di Motetti a voce sola---Venetia---A.Vincenti---1634. Editor : André Vierendeels (07/12/16).
T:Notes : Original clefs : C1, F4 Editorial accidentals above the staff Figures in BC are notated in original print "Canto o Tenore"
T:Bone pulcherrime
T:©
T:©
T:©
T:©
T:©
C:Ignatio Donati
Z:©
%%score 1 2
L:1/8
Q:1/4=99
M:4/4
K:C
V:1 treble nm="Soprano" snm="S"
V:2 bass nm="MusicXML Part"
V:1
 z4 A4- | A2 GA E2 EE | F>E D/E/F/^C/ D/E/F/G/ A/C/D/E/ | F/E/F/G/ F/^C/D/E/ FTEED | E8 | z4 c4- | %6
w: Bo-|* ne pul- cher- ri- me|Do- * * * * * * * * * * * * *|* * * * * * * * * * * mi-|ne,|Bo-|
 c2 Bc A2 AA | A>G F/E/F/G/ A/E/F/G/ A/B/c/G/ | A/B/c/E/ F/E/F/G/ ATGGF | G8 |"^#" z4 G4- | G4 A4 | %12
w: * ne pul- cher- ri- me|Do- * * * * * * * * * * * * *|* * * * * * * * * * * mi-|ne,|dul-|* cis,|
 z4 ^F4- | F4 G4- | G2 E2 E3 D | E4 ^c4- | c4 d4- | d2 B2 B3 A | B6 EE | E4 E4 | F6 F/E/F/G/ | E8 | %22
w: dul-|* cis|_ mi- se- ri-|cors, dul-|* cis|_ mi- se- ri-|cors mi- se-|re- re|me- * * * *||
 D4 z2 AA | A4 A4 | _B6 B/A/B/c/ | A8 | G8 | z4 G4 | A2 AA A2 G2 | ^F4 F2 A2 | B2 BB B2 A2 | %31
w: i, mi- se-|re- re|me- * * * *||i,|et|o- mni- um a- ni-|ma- rum, et|o- mni- um a- ni-|
 ^G4 G2 GG | A2 ^F2 z2 BB | c2 A3 DDD | D8 | C4 c4- | c2 AA B2 B2 | ^c2 cc d4 | d2 EE E4 | D4 d4- | %40
w: ma- rum tam vi-|vo- rum, tam vi-|vo- rum quam mor- tu-|o-|rum, quas|_ re- de- mi- sti|san- gui- ne tu-|o pre- ti- o-|so, quas|
 d2 BA B2 B2 | ^G2 G^F A2 A2 | F/E/D/E/ F/G/A/B/ c/G/A/B/ c/B/c/A/ | B2 c2 B4 | A8 | z4 A4- | %46
w: _ re- de- mi- sti|san- gui- ne tu- o|pre- * * * * * * * * * * * * * * *|* ti- o-|so,|san-|
 A2 GF GFFE | F/E/D/C/ D/E/F/G/ A/E/F/G/ A/^C/D/E/ | F/E/F/G/ A/G/F/E/ G/F/E/D/ F/E/D/C/ | %49
w: * gui- ne tu- o pre- ti-|o- * * * * * * * * * * * * * * *||
"^#" D/E/F/G/ A/B/c/d/ D2 E2 | FTE ED/E/ FTE E/FG/ | E8 |] %52
w: ||so.|
V:2
"^#""^BC" A,,6 B,,2 | ^C,8 | D,8 | D,8 |"^#""^#" A,,4 A,,4 | F,8 | E,4 E,4 | F,8 | D,8 | %9
 C,4 C,2 D,2 |"^#" E,8 | E,2 D,2 ^C,4 |"^#" D,8 |"^#" D,2 C,2 B,,4 | C,4 _B,,4 |"^#" A,,8 | %16
"^#" A,2 G,2 ^F,4 | G,4 F,4 |"^#" E,8 |"^#" A,,8 | A,,8 | A,,8 |"^#""^#" D,4 D,4 |"^#" D,8 | D,8 | %25
 D,8 | G,,4 G,,4 | C,6 B,,2 |"^#" A,,8 |"^#" D,8 | G,6 F,2 |"^#" E,8 | ^C,2 D,2 G,4 | %33
"^6" E,2 F,2 F,,4 | G,,8 | C,6 D,E, |"^#" F,4 E,4 |"^#""^#" A,,4 D,4 |"^#" G,,4 A,,4 | %39
"^#" D,6 E,^F, | G,8 |"^#" E,4 ^C,4 | D,4 A,,4 |"^#" E,8 |"^#" A,,6 B,,^C, | D,6 ^C,B,, | %46
"^#" ^C,8 | D,8- | D,8 | D,8 | D,8 |"^#" A,,8 |] %52

